img/projects.svg

<svg width="64" height="64" xmlns="http://www.w3.org/2000/svg">

 <g>
  <title>background</title>
  <rect fill="none" id="canvas_background" height="402" width="582" y="-1" x="-1"/>
 </g>
 <g>
  <title>Layer 1</title>
  <path fill="#326182" id="svg_2" d="m11.028,45.416l41.943,0c1.658,0 2.996,-1.342 2.996,-2.996l0,-29.96c0,-2.206 -1.787,-3.994 -3.992,-3.994l-39.949,0c-2.206,0 -3.993,1.788 -3.993,3.994l0,29.96c0,1.654 1.342,2.996 2.995,2.996zm2.005,-31.95l37.934,0l0,26.95l-37.934,0l0,-26.95z"/>
  <path fill="#326182" id="svg_3" d="m57.854,47.252l-51.707,0c-0.553,0 -1,0.447 -1,1c0,0.973 0,2.48 0,3.701c0,1.979 2.009,3.58 4.486,3.58l44.734,0c2.477,0 4.486,-1.602 4.486,-3.58l0,-3.701c0.001,-0.553 -0.447,-1 -0.999,-1zm-19.616,5.141l-12.477,0c-0.552,0 -1,-0.447 -1,-1s0.448,-1 1,-1l12.477,0c0.553,0 1,0.447 1,1s-0.447,1 -1,1z"/>
 </g>
</svg>

<?xml version="1.0" encoding="UTF-8" standalone="no"?>
<!DOCTYPE svg PUBLIC "-//W3C//DTD SVG 1.1//EN" "http://www.w3.org/Graphics/SVG/1.1/DTD/svg11.dtd">
<svg width="100%" height="100%" viewBox="0 0 64 64" version="1.1" xmlns="http://www.w3.org/2000/svg" xmlns:xlink="http://www.w3.org/1999/xlink" xml:space="preserve" style="fill-rule:evenodd;clip-rule:evenodd;stroke-linejoin:round;stroke-miterlimit:1.41421;">
    <rect id="canvas_background" x="-1" y="-1" width="582" height="402" style="fill:none;"/>
    <g>
        <path id="svg_2" d="M11.028,45.416L52.971,45.416C54.629,45.416 55.967,44.074 55.967,42.42L55.967,12.46C55.967,10.254 54.18,8.466 51.975,8.466L12.026,8.466C9.82,8.466 8.033,10.254 8.033,12.46L8.033,42.42C8.033,44.074 9.375,45.416 11.028,45.416L11.028,45.416ZM13.033,13.466L50.967,13.466L50.967,40.416L13.033,40.416L13.033,13.466Z" style="fill:rgb(50,97,130);fill-rule:nonzero;"/>
        <path id="svg_3" d="M57.854,47.252L6.147,47.252C5.594,47.252 5.147,47.699 5.147,48.252C5.147,49.225 5.147,50.732 5.147,51.953C5.147,53.932 7.156,55.533 9.633,55.533L54.367,55.533C56.844,55.533 58.853,53.931 58.853,51.953L58.853,48.252C58.854,47.699 58.406,47.252 57.854,47.252ZM38.238,52.393L25.761,52.393C25.209,52.393 24.761,51.946 24.761,51.393C24.761,50.84 25.209,50.393 25.761,50.393L38.238,50.393C38.791,50.393 39.238,50.84 39.238,51.393C39.238,51.946 38.791,52.393 38.238,52.393Z" style="fill:rgb(50,97,130);fill-rule:nonzero;"/>
    </g>
</svg>
